X: 1161
M: 2/4
L: 1/16
K: C
(3cdce2 (3cdce2 | (3gage2 (3gage2 | (3fgfd2 e2c2 | dcde d2G2 |\
(3cdce2 (3cdce2 | (3gage2 (3gage2 | d2d2 d>cd>e | c>Bc>d c2 |]
g2 |\
e2 |\
d>cd>e d2f2 | e>de>f e2g2 | d>cd>e d2f2 | e4 z2g2 |\
d>cd>e d2f2 | e>de>f e2g2 | g2d2 d>cd>e | c>Bc>d "^da Capo"c2 |]
Ladies' chain.

